assets/illustrations/multisize/32/multiple.svg

<?xml version="1.0" encoding="utf-8"?>
<!-- Generator: Adobe Illustrator 21.1.0, SVG Export Plug-In . SVG Version: 6.00 Build 0)  -->
<svg version="1.1" xmlns="http://www.w3.org/2000/svg" xmlns:xlink="http://www.w3.org/1999/xlink" x="0px" y="0px"
	 viewBox="0 0 32 32" enable-background="new 0 0 32 32" xml:space="preserve">
<g id="TEMPLATE" display="none">
	<g display="inline">
		<path fill="#D0D0D0" d="M32,0v32H0V0H32 M33-1h-1H0h-1v1v32v1h1h32h1v-1V0V-1L33-1z"/>
	</g>
	<g display="inline" opacity="0.1">
		<path fill="#FF3A6D" d="M30,2v28H2V2H30 M32,0H0v32h32V0L32,0z"/>
	</g>
</g>
<g id="ICONS">
	<g>
		<g>
			<polygon fill="#FFFFFF" points="21,2 20,2 7,2 7,4 5,4 5,30 25,30 25,28 27,28 27,9 27,8 			"/>
		</g>
		<path fill="#949494" d="M21,2h-1H7v2H5v26h20v-2h2V9V8L21,2z M21,3.5L25.5,8H21V3.5z M24,29H6V5h1v23h17V29z M26,27h-1h-1H8V5V4V3
			h12v5v1h1h5V27z"/>
	</g>
	<linearGradient id="SVGID_1_" gradientUnits="userSpaceOnUse" x1="5.4472" y1="3.2131" x2="25.6419" y2="29.0611">
		<stop  offset="0" style="stop-color:#FFFFFF;stop-opacity:0"/>
		<stop  offset="0.2264" style="stop-color:#FCFCFC;stop-opacity:0.0226"/>
		<stop  offset="0.3626" style="stop-color:#F4F4F4;stop-opacity:0.0363"/>
		<stop  offset="0.475" style="stop-color:#E6E6E6;stop-opacity:0.0475"/>
		<stop  offset="0.5744" style="stop-color:#D1D1D1;stop-opacity:0.0574"/>
		<stop  offset="0.6652" style="stop-color:#B7B7B7;stop-opacity:0.0665"/>
		<stop  offset="0.7498" style="stop-color:#979797;stop-opacity:0.075"/>
		<stop  offset="0.8297" style="stop-color:#707070;stop-opacity:0.083"/>
		<stop  offset="0.9057" style="stop-color:#444444;stop-opacity:0.0906"/>
		<stop  offset="0.9761" style="stop-color:#121212;stop-opacity:0.0976"/>
		<stop  offset="1" style="stop-color:#000000;stop-opacity:0.1"/>
	</linearGradient>
	<path fill="url(#SVGID_1_)" d="M27,8l-6-6H7v26h20V8z"/>
	<linearGradient id="SVGID_2_" gradientUnits="userSpaceOnUse" x1="20.6479" y1="9.6021" x2="24.6144" y2="5.6356">
		<stop  offset="0" style="stop-color:#FFFFFF;stop-opacity:0"/>
		<stop  offset="0.8537" style="stop-color:#FFFFFF;stop-opacity:0.2134"/>
		<stop  offset="1" style="stop-color:#FFFFFF;stop-opacity:0.25"/>
	</linearGradient>
	<polygon fill="url(#SVGID_2_)" points="7,2 7,3 20,3 20,9 26,9 26,24.5 27,24.5 27,8 21,2 	"/>
	<linearGradient id="SVGID_3_" gradientUnits="userSpaceOnUse" x1="23" y1="10.9375" x2="23" y2="9.0583">
		<stop  offset="0" style="stop-color:#828282;stop-opacity:0"/>
		<stop  offset="0.2812" style="stop-color:#7F7F7F;stop-opacity:0.0281"/>
		<stop  offset="0.4503" style="stop-color:#777777;stop-opacity:0.045"/>
		<stop  offset="0.5899" style="stop-color:#696969;stop-opacity:0.059"/>
		<stop  offset="0.7133" style="stop-color:#545454;stop-opacity:0.0713"/>
		<stop  offset="0.8259" style="stop-color:#3A3A3A;stop-opacity:0.0826"/>
		<stop  offset="0.9294" style="stop-color:#1A1A1A;stop-opacity:0.0929"/>
		<stop  offset="1" style="stop-color:#000000;stop-opacity:0.1"/>
	</linearGradient>
	<rect x="20" y="9" fill="url(#SVGID_3_)" width="6" height="2"/>
	<linearGradient id="SVGID_4_" gradientUnits="userSpaceOnUse" x1="16" y1="29.9375" x2="16" y2="28.0583">
		<stop  offset="0" style="stop-color:#828282;stop-opacity:0"/>
		<stop  offset="0.2812" style="stop-color:#7F7F7F;stop-opacity:0.0281"/>
		<stop  offset="0.4503" style="stop-color:#777777;stop-opacity:0.045"/>
		<stop  offset="0.5899" style="stop-color:#696969;stop-opacity:0.059"/>
		<stop  offset="0.7133" style="stop-color:#545454;stop-opacity:0.0713"/>
		<stop  offset="0.8259" style="stop-color:#3A3A3A;stop-opacity:0.0826"/>
		<stop  offset="0.9294" style="stop-color:#1A1A1A;stop-opacity:0.0929"/>
		<stop  offset="1" style="stop-color:#000000;stop-opacity:0.1"/>
	</linearGradient>
	<rect x="7" y="28" fill="url(#SVGID_4_)" width="18" height="2"/>
	<linearGradient id="SVGID_5_" gradientUnits="userSpaceOnUse" x1="-0.686" y1="8.4424" x2="19.5087" y2="34.2903">
		<stop  offset="0" style="stop-color:#FFFFFF;stop-opacity:0"/>
		<stop  offset="0.2264" style="stop-color:#FCFCFC;stop-opacity:0.0226"/>
		<stop  offset="0.3626" style="stop-color:#F4F4F4;stop-opacity:0.0363"/>
		<stop  offset="0.475" style="stop-color:#E6E6E6;stop-opacity:0.0475"/>
		<stop  offset="0.5744" style="stop-color:#D1D1D1;stop-opacity:0.0574"/>
		<stop  offset="0.6652" style="stop-color:#B7B7B7;stop-opacity:0.0665"/>
		<stop  offset="0.7498" style="stop-color:#979797;stop-opacity:0.075"/>
		<stop  offset="0.8297" style="stop-color:#707070;stop-opacity:0.083"/>
		<stop  offset="0.9057" style="stop-color:#444444;stop-opacity:0.0906"/>
		<stop  offset="0.9761" style="stop-color:#121212;stop-opacity:0.0976"/>
		<stop  offset="1" style="stop-color:#000000;stop-opacity:0.1"/>
	</linearGradient>
	<polygon fill="url(#SVGID_5_)" points="5,4 7,4 7,28 25,28 25,30 5,30 	"/>
</g>
</svg>

<svg id="642865ed-a369-481b-8e59-8d1b20c18f85" data-name="ICONS" xmlns="http://www.w3.org/2000/svg" xmlns:xlink="http://www.w3.org/1999/xlink" viewBox="0 0 32 32"><defs><linearGradient id="a53952ff-aec4-40ac-9b23-d91312d38045" x1="5.44724" y1="3.21315" x2="25.64187" y2="29.06109" gradientUnits="userSpaceOnUse"><stop offset="0" stop-color="#fff" stop-opacity="0"/><stop offset="0.86247" stop-color="#5e5e5e" stop-opacity="0.06315"/><stop offset="1" stop-opacity="0.1"/></linearGradient><linearGradient id="14430362-e6b1-44e2-bfd9-3ead0aa9d960" x1="20.64788" y1="9.60212" x2="24.61437" y2="5.63563" gradientUnits="userSpaceOnUse"><stop offset="0" stop-color="#fff" stop-opacity="0"/><stop offset="0.44604" stop-color="#fff" stop-opacity="0.00799"/><stop offset="0.63551" stop-color="#fff" stop-opacity="0.03616"/><stop offset="0.77636" stop-color="#fff" stop-opacity="0.08493"/><stop offset="0.8924" stop-color="#fff" stop-opacity="0.15385"/><stop offset="0.99328" stop-color="#fff" stop-opacity="0.24291"/><stop offset="1" stop-color="#fff" stop-opacity="0.25"/></linearGradient><linearGradient id="37e4705b-fb6b-47a0-a6b4-3283a4668b35" x1="23" y1="10.9375" x2="23" y2="9.05834" gradientUnits="userSpaceOnUse"><stop offset="0" stop-color="#828282" stop-opacity="0"/><stop offset="0.86247" stop-color="#303030" stop-opacity="0.06315"/><stop offset="1" stop-opacity="0.1"/></linearGradient><linearGradient id="9b5c72a8-50f2-4a5c-b604-6b7ae174ccd7" x1="16" y1="29.9375" x2="16" y2="28.05834" xlink:href="#37e4705b-fb6b-47a0-a6b4-3283a4668b35"/><linearGradient id="e6b75af5-f30d-431a-bf5b-ea3570e9347e" x1="-0.68596" y1="8.44236" x2="19.50866" y2="34.2903" xlink:href="#a53952ff-aec4-40ac-9b23-d91312d38045"/></defs><title>FileTypeIcons_Master_All_NEW</title><polygon points="21 2 20 2 7 2 7 4 5 4 5 30 25 30 25 28 27 28 27 9 27 8 21 2" fill="#fff"/><path d="M21,2H7V4H5V30H25V28h2V8Zm0,1.5L25.5,8H21ZM24,29H6V5H7V28H24Zm2-2H8V3H20V9h6Z" fill="#949494"/><path d="M27,8,21,2H7V28H27Z" fill="url(#a53952ff-aec4-40ac-9b23-d91312d38045)"/><polygon points="7 2 7 3 20 3 20 9 26 9 26 24.5 27 24.5 27 8 21 2 7 2" fill="url(#14430362-e6b1-44e2-bfd9-3ead0aa9d960)"/><rect x="20" y="9" width="6" height="2" fill="url(#37e4705b-fb6b-47a0-a6b4-3283a4668b35)"/><rect x="7" y="28" width="18" height="2" fill="url(#9b5c72a8-50f2-4a5c-b604-6b7ae174ccd7)"/><polygon points="5 4 7 4 7 28 25 28 25 30 5 30 5 4" fill="url(#e6b75af5-f30d-431a-bf5b-ea3570e9347e)"/></svg>
